!!!!SEGMENT: Fss3003-Amor_che_me_tormenti.krn
!!!id: Fss3003
!!!AGN: Frottola
!!!voices: 4
!!!COM: Sebastiano Festa
!!!OTL: Amor, che me tormenti
**kern	**kern	**kern	**kern
*part4	*part3	*part2	*part1
*staff4	*staff3	*staff2	*staff1
*I"Bassus	*I"Tenor	*I"Altus	*I"Superius
*I'B	*I'T	*I'A	*I'S
*clefF4	*clefGv2	*clefGv2	*clefG2
*k[]	*k[]	*k[]	*k[]
*C:	*C:	*C:	*C:
*M2/1	*M2/1	*M2/1	*M2/1
*met(C|)	*met(C|)	*met(C|)	*met(C|)
=1	=1	=1	=1
1D	1f	1d	2r
.	.	.	2a
2F	2f	2c	2a
2F	2f	2c	2a
=2	=2	=2	=2
2F	2f	2c	2a
2F	2f	2c	2a
[1C	[1e	[1c	[1g
=3	=3	=3	=3
1C]	1e]	1c]	1g]
1D	1d	1A	1f
=4	=4	=4	=4
2r	2r	2r	2r
2C	2e	2c	2g
2.C	2.e	2.c	2.g
4C	4e	4c	4g
=5	=5	=5	=5
2C	2e	2.c	2g
2C	2e	.	2g
.	.	4B	.
2.D	2d	2A	2.f
.	2A	2A	.
4C	.	.	4e
=6	=6	=6	=6
2BB	2A	2D	2d
2BB	2G	2D	2d
2AA	2A	2E	2c
2AA	2A	2E	2c
=7	=7	=7	=7
2r	2r	2r	2r
2AA	2E	2A	2c
2D	2F	2A	2d
2AA	2E	2A	2c
=8	=8	=8	=8
2D	2F	2A	2d
2D	2F	2B	2d
[1C	[1G	[1c	[1e
=9	=9	=9	=9
1C]	1G]	1c]	1e]
2D	2F	2A	4f
.	.	.	4e
2GG	2G	2B-i	[2d
=10	=10	=10	=10
1AA	1E	1A	2d]
.	.	.	2c#i
1A	1D	1F	1d
=11	=11	=11	=11
1A	1D	1F	1d
2r	2r	2r	2r
2D	2f	2d	2a
=12	=12	=12	=12
2F	2f	2c	2a
2F	2f	2c	2a
2F	2f	2c	2a
2F	2f	2c	2a
=13	=13	=13	=13
0F	0f	0c	1a
.	.	.	1a
=14	=14	=14	=14
1C	2e	2c	1g
.	4d	4B	.
.	4c	4A	.
2E	4B	4G	2g
.	2c	4E	.
2D	.	2F	2f
.	4B	.	.
=15	=15	=15	=15
1C	1c	1G	1e
2C	2c	2G	2e
2C	2c	2G	2e
=16	=16	=16	=16
2.D	2A	2F	2.f
.	2A	2D	.
4C	.	.	4e
2BB	2A	2D	2d
2BB	2G	2D	2d
=17	=17	=17	=17
2AA	2A	2E	2c
2AA	2A	2E	2c
2r	1E	2r	2r
2AA	.	2A	2c
=18	=18	=18	=18
2AA	2C	2E	2c
2AA	2C	2F	2c
2GG	2D	2G	2B
2GG	2E	2G	2B
=19	=19	=19	=19
0FF	1F	1C	0A
.	1F	1C	.
=20	=20	=20	=20
1BB-X	2.F	1D	1d
.	4D	.	.
2BB-i	2F	1D	2d
2BB-i	2G	.	2d
=21	=21	=21	=21
2AA	2A	2E	2c
2AA	2A	2E	2c
2r	2r	2r	2r
2AA	2E	2A	2c
=22	=22	=22	=22
2AA	2E	2A	2c
2AA	2E	2A	2c
2D	2F	2A	2d
2D	2F	2B	2d
=23	=23	=23	=23
0C	0G	0c	0e
=24	=24	=24	=24
1D	1F	2r	4A
.	.	.	4B
.	.	1d	4c
.	.	.	4A
2GG	4G	.	4B
.	4F	.	4c
2BB	4E	2G	[2d
.	4D	.	.
=25	=25	=25	=25
1AA	2E	1A	2d]
.	2E	.	2c#i
1D	2D	2F	2d
.	2D	2F	2d
=26	=26	=26	=26
2r	2r	2r	2r
2GG	2G	2d	2B
2GG	2G	2d	2B
2GG	2G	2d	2B
=27	=27	=27	=27
2GG	2G	2d	2B
2GG	2G	2d	2B
1GG	1G	1d	1B
=28	=28	=28	=28
1D	1F	1d	2A
.	.	.	1B
1C	2E	2r	.
.	2C	2e	[2A
=29	=29	=29	=29
1BB	1D	2e	2A]
.	.	1d	2G
1AA	1E	.	2A
.	.	2c#i	2A
=30	=30	=30	=30
2D	2D	2d	2r
2D	2d	2A	2f
2D	2d	2A	2f
2D	2d	2A	2f
=31	=31	=31	=31
2AA	2c	2A	2e
2D	2A	2F	1f
1BB-X	2.B-X	1F	.
.	.	.	2d
.	4A	.	.
=32	=32	=32	=32
2C	2G	2c	2e
2D	2F	4A	1f
.	.	4B	.
1C	1G	1c	.
.	.	.	2e
=33	=33	=33	=33
1FF	1F	1A	1f
1FF	1F	1A	1f
=34	=34	=34	=34
0FF	0A	0F	0cc
=35	=35	=35	=35
2GG	2G	2D	2b
2GG	2G	2D	2b
2GG	2D	2G	2b
2GG	2E	2G	2b
=36	=36	=36	=36
1FF	1F	1C	1a
1FF	1F	1C	1a
=37	=37	=37	=37
2r	2r	2r	2r
2FF	2F	2c	2a
2FF	2F	2c	2a
2FF	2F	2c	2a
=38	=38	=38	=38
2FF	2F	2c	2a
2FF	2F	2c	2a
1FF	1F	1c	1a
=39	=39	=39	=39
1FF	1F	1c	1a
1BB-X	1D	2B-X	2g
.	.	4A	[2f
.	.	4G	.
=40	=40	=40	=40
2BB-i	2D	2F	2f]
2BB-i	2D	2G	2d
2AA	2E	2A	2c
2AA	2E	2A	2r
=41	=41	=41	=41
2r	2r	2r	2r
2AA	2E	2A	2c
2D	2F	2A	2d
2D	2F	2B	2d
=42	=42	=42	=42
1.C	1G	2c	1.e
.	.	2c	.
.	4G	2C	.
.	4E	.	.
2BB	4F	2D	2d
.	4G	.	.
=43	=43	=43	=43
1AA	1A	1E	1c
1AA	1A	2r	2r
.	.	2e	2c
=44	=44	=44	=44
1D	4F	2A	4d
.	4G	.	4e
.	4A	2B	4f
.	4F	.	4d
[1C	[1G	[1c	4e
.	.	.	4f
.	.	.	4g
.	.	.	4f
=45	=45	=45	=45
1C]	1G]	1c]	4e
.	.	.	4d
.	.	.	4c
.	.	.	4B
1FF	2F	1c	4A
.	.	.	4B
.	2A	.	4c
.	.	.	4A
=46	=46	=46	=46
1GG	2.G	2r	4B
.	.	.	4c
.	.	2B	1d
.	4F	.	.
[1AA	2E	2A	.
.	2D	2A	4c#i
.	.	.	4B
=47	=47	=47	=47
1AA]	1E	1A	2c#i
.	.	.	2d
[1D	[1D	[1A	1d
=48	=48	=48	=48
1D]	1D]	1A]	1d
2r	2r	2r	2r
2AA	2E	2A	2c
=49	=49	=49	=49
2D	2F	2A	2d
2D	2F	2B	2d
[1C	1G	2c	[1e
.	.	2c	.
=50	=50	=50	=50
2C]	4G	2C	2e]
.	4E	.	.
2BB	4F	2D	2d
.	4G	.	.
1AA	1A	1E	1c
=51	=51	=51	=51
1AA	1A	2r	2r
.	.	2e	2c
1D	4F	2A	4d
.	4G	.	4e
.	4A	2B	4f
.	4F	.	4d
=52	=52	=52	=52
0C	0G	0c	4e
.	.	.	4f
.	.	.	4g
.	.	.	4f
.	.	.	4e
.	.	.	4d
.	.	.	4c
.	.	.	4B
=53	=53	=53	=53
1FF	2F	1c	4A
.	.	.	4B
.	2A	.	4c
.	.	.	4A
1GG	2.G	2r	4B
.	.	.	4c
.	.	2B	[2d
.	4F	.	.
=54	=54	=54	=54
0AA	2E	2A	2d]
.	2D	2A	4c#i
.	.	.	4B
.	1E	1A	2c#i
.	.	.	2d
=55	=55	=55	=55
0D	0D	0A	1d
.	.	.	1d
=56	=56	=56	=56
2r	2r	2r	2r
2AA	2E	2A	2c
2AA	2E	2A	2c
2AA	2C	2E	2c
=57	=57	=57	=57
0GG	1.D	0G	0B
.	2E	.	.
=58	=58	=58	=58
00FFl	00Fl	00Cl	00Al
==	==	==	==
*-	*-	*-	*-
!!!system-decoration: [*]
!!!RDF**kern: i = editorial accidental
!!!RDF**kern: l = terminal long
!!!ENC: Benjamin Ory
!!!END: 2024/10/2
!!!EED: Benjamin Ory
!!!EEV: 2024/10/02
!!!YEC: Copyright 2024 Benjamin Ory, All Rights Reserved
!!!ONB: Translated from MusicXML on 2024/10/02